!!!COM: Beethoven
!!!OTL: 7 Variations on a Quartet by Winter
!!!Variation: Variation 5 f
**function	**harm	**kern	**kern
*	*	*clefG2	*clefG2
*	*	*k[b-]	*k[b-]
*M2/4	*M2/4	*M2/4	*M2/4
*F:	*F:	*F:	*F:
.	.	.	q8bn
4T	4V	4r	8ccL
.	.	.	q8bn
.	.	.	8ccJ
=286	=286	=286	=286
2T	2V7	4r	(8ccL
.	.	.	16eeJk)
.	.	.	16r
.	.	(8B-L	4r
.	.	16CJk)	.
.	.	16r	.
=287	=287	=287	=287
2T	2Ic	4r	(8ccL
.	.	.	16ffJk)
.	.	.	16r
.	.	(8AL	4r
.	.	16CJk)	.
.	.	16r	.
=288	=288	=288	=288
2T	2V7	4r	(8ccL
.	.	.	16bb-Jk)
.	.	.	16r
.	.	(8EL	4r
.	.	16CJk)	.
.	.	16r	.
=289	=289	=289	=289
2T	2Ic	4r	(8ccL
.	.	.	16aaJk)
.	.	.	16r
.	.	(8FL	4r
.	.	16CJk)	.
.	.	16r	.
=290	=290	=290	=290
4T	4V7	8r	(16ccLL
.	.	.	16eeJJ)
.	.	(16B-LL	8r
.	.	16CJJ)	.
4T	4viioD7/vi	8r	(16dd#LL
.	.	.	16eeJJ)
.	.	(16B-LL	8r
.	.	16C#JJ)	.
=291	=291	=291	=291
4P	4vi	8r	(16eeLL
.	.	.	16ffJJ)
.	.	(16ALL	8r
.	.	16DJJ)	.
4P	4V7c/V	8r	(16ffLL 16gg
.	.	.	16fffJJ)
.	.	(16BLL	8r
.	.	16DJJ)	.
=292	=292	=292	=292
4D	4Cc	8r	(16ffLL 16aa
.	.	.	16fffJJ)
.	.	(16cLL	8r
.	.	16CJJ)	.
4D	4V7	8r	(16ggLL 16bb-
.	.	.	16eeeJJ)
.	.	(16ccLL	8r
.	.	16cJJ)	.
=293	=293	=293	=293
4T	4I	8r	(16ffLL 16aa
.	.	.	16fffJJ)
.	.	(16fLL	8r
.	.	16FJJ)	.
4T	4V7	8r	(16b-LL
.	.	.	16eeJJ)
.	.	(16cLL	8r
.	.	16CJJ)	.
=294	=294	=294	=294
4T	4I	8r	(16aLL
.	.	.	16ffJJ)
.	.	(16FLL	8r
.	.	16FFJJ)	.
*-	*-	*-	*-
